X: 0724
T: YALLER GALS
B: Oliver Ditson "The Boston Collection of Instrumental Music" 1910 p.72 #4
F: http://conquest.imslp.info/files/imglnks/usimg/8/8f/IMSLP175643-PMLP309456-bostoncollection00bost_bw.pdf
M: 2/4
L: 1/16
K: C
e2 |\
f2e2d2c2 | d2e2g3e | f2e2d2c2 | e2c2B3e |\
f2e2d2c2 | d2e2g3e | f2e2d2c2 | e2c2G4 |
G2G2 A2c2 | c6de | f2e2f2g2 | a2c'6 |\
G2G2 A2c2 | c6de | f2e2f2d2 | c6eg |
c'bc'a g2ag | fefg e2ag | fedc B2g2 | c4 z2 |]

%%sep 1 1 500
%%sep 1 1 500
